assets/icons/trash.svg

<svg width="20" height="20" viewBox="0 0 20 20" fill="none" xmlns="http://www.w3.org/2000/svg">
<g clip-path="url(#clip0_4607_7155)">
<path d="M17.5 4.98307C14.725 4.70807 11.9333 4.56641 9.15 4.56641C7.5 4.56641 5.85 4.64974 4.2 4.81641L2.5 4.98307" stroke="#FF5E54" stroke-width="1.5" stroke-linecap="round" stroke-linejoin="round"/>
<path d="M7.08301 4.14102L7.26634 3.04935C7.39967 2.25768 7.49967 1.66602 8.90801 1.66602H11.0913C12.4997 1.66602 12.608 2.29102 12.733 3.05768L12.9163 4.14102" stroke="#FF5E54" stroke-width="1.5" stroke-linecap="round" stroke-linejoin="round"/>
<path d="M15.7087 7.61719L15.167 16.0089C15.0753 17.3172 15.0003 18.3339 12.6753 18.3339H7.32533C5.00033 18.3339 4.92533 17.3172 4.83366 16.0089L4.29199 7.61719" stroke="#FF5E54" stroke-width="1.5" stroke-linecap="round" stroke-linejoin="round"/>
<path d="M8.6084 13.75H11.3834" stroke="#FF5E54" stroke-width="1.5" stroke-linecap="round" stroke-linejoin="round"/>
<path d="M7.91699 10.416H12.0837" stroke="#FF5E54" stroke-width="1.5" stroke-linecap="round" stroke-linejoin="round"/>
</g>
<defs>
<clipPath id="clip0_4607_7155">
<rect width="20" height="20" rx="6" fill="white"/>
</clipPath>
</defs>
</svg>

<svg width="20" height="20" viewBox="0 0 20 20" fill="none" xmlns="http://www.w3.org/2000/svg"><g clip-path="url(#clip0_4607_7155)"><path d="M17.5 4.98a85 85 0 0 0-8.35-.41q-2.47 0-4.95.25l-1.7.16m4.58-.84.19-1.1c.13-.78.23-1.37 1.64-1.37h2.18c1.41 0 1.52.62 1.64 1.39l.19 1.08m2.79 3.48L15.17 16c-.1 1.3-.17 2.32-2.5 2.32H7.34c-2.33 0-2.4-1.01-2.5-2.32L4.3 7.6m4.32 6.14h2.77m-3.46-3.33h4.16" stroke="#FF5E54" stroke-width="1.5" stroke-linecap="round" stroke-linejoin="round"/></g><defs><clipPath id="clip0_4607_7155"><rect width="20" height="20" rx="6" fill="white"/></clipPath></defs></svg>
